icons/megaphone-16.svg

<svg width="16" height="16" viewBox="0 0 16 16" xmlns="http://www.w3.org/2000/svg">
  <path fill-rule="evenodd" clip-rule="evenodd" d="M15.5712 0.572256C15.833 0.696353 16 0.960216 16 1.25001L14.7769 0.668065L14.7769 0.668048L14.7777 0.667366C14.778 0.667178 14.7776 0.667521 14.7765 0.668378L14.7621 0.679557C14.7472 0.690943 14.7217 0.710013 14.6857 0.735689C14.6135 0.787045 14.4989 0.864803 14.3414 0.960366C14.0264 1.15147 13.5398 1.41379 12.8777 1.67865C11.5559 2.20738 9.52654 2.74947 6.75411 2.75001C6.50517 2.5917 6.20972 2.5 5.89286 2.5H4C1.79086 2.5 0 4.29086 0 6.5C0 8.1791 1.03458 9.61655 2.50107 10.2097C2.50036 10.223 2.5 10.2365 2.5 10.25C2.5 12.5693 2.98616 14.1807 3.31256 15.0006C3.57478 15.6593 4.20971 16 4.83032 16H6.02682C6.7117 16 7.25503 15.6115 7.57322 15.1427C7.88953 14.6767 8.04127 14.0532 7.88312 13.4466C7.6832 12.6798 7.50121 11.6123 7.50001 10.2635C9.89372 10.3501 11.6774 10.8413 12.8777 11.3214C13.5398 11.5862 14.0264 11.8485 14.3414 12.0397C14.4989 12.1352 14.6135 12.213 14.6857 12.2643C14.7217 12.29 14.7472 12.3091 14.7621 12.3205L14.7765 12.3316L14.7775 12.3325C15.0016 12.5143 15.3102 12.5514 15.5712 12.4278C15.833 12.3037 16 12.0398 16 11.75V1.25001L14.7765 0.668385L14.7769 0.668065C15.001 0.485831 15.31 0.448491 15.5712 0.572256ZM4.00209 10.5C4.03507 12.4687 4.45144 13.8059 4.70618 14.4458C4.71036 14.4563 4.71689 14.4658 4.73305 14.4759C4.75155 14.4875 4.78444 14.5 4.83032 14.5H6.02682C6.10976 14.5 6.22857 14.4529 6.33212 14.3003C6.43757 14.145 6.4672 13.9614 6.43164 13.825C6.21387 12.9898 6.02248 11.8739 6.00184 10.4964C5.96582 10.4988 5.92948 10.5 5.89286 10.5H4.00209ZM7.5 8.76255C10.1013 8.8502 12.0728 9.38384 13.4348 9.92865C13.8457 10.093 14.2006 10.2582 14.5 10.4119V2.58807C14.2006 2.74187 13.8457 2.907 13.4348 3.07137C12.0728 3.61618 10.1013 4.14982 7.5 4.23748V8.76255ZM14.7765 0.668385L14.7761 0.668692L14.7765 0.668378L14.7765 0.668385ZM1.5 6.5C1.5 5.11929 2.61929 4 4 4H5.89286C5.95203 4 6 4.04797 6 4.10714V8.89286C6 8.95203 5.95203 9 5.89286 9H4C2.61929 9 1.5 7.88071 1.5 6.5Z"/>
</svg>

<svg xmlns="http://www.w3.org/2000/svg" width="16" height="16" viewBox="0 0 16 16"><path fill-rule="evenodd" d="M15.571.572A.75.75 0 0116 1.25L14.777.668c.001 0 0 0 0 0l-.015.012-.076.056a5.508 5.508 0 01-.345.224 9.982 9.982 0 01-1.463.719c-1.322.528-3.351 1.07-6.124 1.071a1.6 1.6 0 00-.861-.25H4a4 4 0 00-1.499 7.71.758.758 0 00-.001.04c0 2.32.486 3.93.813 4.75.262.66.897 1 1.517 1h1.197c.685 0 1.228-.389 1.546-.857.317-.466.468-1.09.31-1.696-.2-.767-.382-1.835-.383-3.183 2.394.086 4.177.577 5.378 1.057a9.965 9.965 0 011.463.719 5.7 5.7 0 01.421.28l.014.012h.002A.75.75 0 0016 11.75V1.25L14.777.668a.75.75 0 01.794-.096zM4.002 10.5c.033 1.969.45 3.306.704 3.946.004.01.01.02.027.03a.185.185 0 00.097.024h1.197c.083 0 .202-.047.305-.2a.608.608 0 00.1-.475 14.036 14.036 0 01-.43-3.329 1.64 1.64 0 01-.11.004h-1.89zM7.5 8.763c2.601.087 4.573.62 5.935 1.166.41.164.766.33 1.065.483V2.588c-.3.154-.654.319-1.065.483C12.073 3.616 10.1 4.15 7.5 4.237v4.526zM14.777.668zM1.5 6.5A2.5 2.5 0 014 4h1.893c.059 0 .107.048.107.107v4.786A.107.107 0 015.893 9H4a2.5 2.5 0 01-2.5-2.5z"/></svg>
